!!!!SEGMENT: pl-wnifc--6801-n_lubomirski-kazimierz--nie-placz-dziewcze-op-42-twoje-oczy-z-blyskawicy.krn
!!!cenid: 18xx:3974
!!!COM: Lubomirski, Kazimierz
!!!COM-rismID: pe30107516
!!!CDT: 1813-1871
!!!CNT: Polish
!!!OTL: Nie płacz dziewcze op. 42/Twoje oczy z błyskawicy
!!!PDT:
!!!AGN:
!!!YEC: Copyright 2022 Narodowy Instytut Fryderyka Chopina (https://polishscores.org)
!!!YEM: License CC-BY-4.0 (https://creativecommons.org/licenses/by/4.0)
!!!SMS-siglum: PL-Wnifc
!!!SMS-shelfmark: 6801/n
!!!SMS-shelfwork: W
!!!SMS-variant:
!!!SMS-altvar:
!!!NIFC-rismSourceID: 1001158240
!!!NIFC-rismChildID: 1001158240
!!!NIFC-islandoraID: nifc:213552
!!!URL-pdf-islandora: https://repozytorium.nifc.pl/islandora/object/nifc%3A213552/datastream/PDF/view
!!!URL-scan: https://polish.musicsources.pl/pl/lokalizacje/galeria/druki-muzyczne/16921 @EN{Scan on Polish Music Sources Website} @PL{Skany w portalu Dziedzictwo Muzyki Polskiej w otwartym dostępie}
!!!IIIF:
!!!ONB-nifc:
!!!AIN: 2 piano 1 vox
!!!key: A
**kern	**kern	**dynam	**kern	**text	**dynam
*part3	*part2	*	*part1	*	*
*staff3	*staff2	*	*staff1	*	*
*I"Fortepian.	*I"Fortepian.	*	*I"Głos.	*	*
*I'pf	*I'pf	*	*I'V	*	*
*ICklav	*ICklav	*	*ICvox	*	*
*Ipiano	*Ipiano	*	*Ivox	*	*
*clefF4	*clefG2	*	*clefG2	*	*
*k[f#c#g#]	*k[f#c#g#]	*	*k[f#c#g#]	*	*
*A:	*A:	*	*A:	*	*
*M3/8	*M3/8	*	*M3/8	*	*
=1	=1	=1	=1	=1	=1
!	!LO:TX:a:i:t=Sotto voce	!	!	!	!
8AA\L	8E</L 8A 8c# 8e	p	4.r	.	.
8BB\J	8E</ 8G# 8d 8e	.	.	.	.
16GG#\LL	8E</J 8B 8d 8e	.	.	.	.
16EE\JJ	.	.	.	.	.
=2	=2	=2	=2	=2	=2
16AA\LL	8E</L 8A 8c# 8e	.	4.r	.	.
16AA\JJ	.	.	.	.	.
16BB\LL	8E<^>/ 8G# 8d 8e	.	.	.	.
32C#\L	.	.	.	.	.
32BB\JJJ	.	.	.	.	.
16GG#\LL	8E</J 8B 8d 8e	.	.	.	.
16EE\JJ	.	.	.	.	.
=3	=3	=3	=3	=3	=3
16AA\LL	16E</LL 16A 16c#	.	4.r	.	.
16C#\JJ	16A/JJ 16e	<	.	.	.
8E\L	8c#/L 8a	.	.	.	.
8E\J 8A#X	8c#/J 8e 8cc#	[[	.	.	.
=4	=4	=4	=4	=4	=4
*^	*	*	*	*	*
!	!	!	!LO:HP:b=2	!	!	!
16B/LL	4.E\	16d/LL 16e 16dd	>	4.r	.	.
16A#X/	.	16c#/	.	.	.	.
16B/	.	16dw</	.	.	.	.
16A#/	.	16c#/	.	.	.	.
16B/	.	16d/	.	.	.	.
16d/JJ	.	16f#/JJ	]]	.	.	.
*v	*v	*	*	*	*	*
=5	=5	=5	=5	=5	=5
16A\LL	8c#/L 8e	p	4.r	.	.
16AA\JJ	.	.	.	.	.
8BB\L	8E</ 8G# 8d 8e	.	.	.	.
16BB\L	8E</J 8B 8d 8e	.	.	.	.
16EE\JJ	.	.	.	.	.
!!LO:LB:g=original	!	!	!	!	!
=6	=6	=6	=6	=6	=6
16AA\LL	8E</L 8A 8c# 8e	.	4.r	.	.
16AA\JJ	.	.	.	.	.
16BB\LL	8E<^>/ 8G# 8d 8e	.	.	.	.
32C#\L	.	.	.	.	.
32BB\JJJ	.	.	.	.	.
16GG#\LL	8E</J 8B 8d 8e	.	.	.	.
16EE\JJ	.	.	.	.	.
=7	=7	=7	=7	=7	=7
16AA\LL	16E</LL 16A 16c#	.	4.r	.	.
16AA#X\JJ	16E</JJ 16Gn 16c#	.	.	.	.
16BB\LL	16E</LL 16G#X 16B	.	.	.	.
16E\	16G#/ 16B	<	.	.	.
16G#\	16B/ 16e	.	.	.	.
16A\JJ	16e/JJ 16g#X	[[	.	.	.
=8	=8	=8	=8	=8	=8
*	*^	*	*	*	*
8BB\ 8A	16g#/LL	8d#X\	>	4.r	.	.
.	16f#/JJ	.	.	.	.	.
4E\ 4G#	8e/L	4B\	.	.	.	.
.	8dn/J	.	]]	.	.	.
*	*v	*v	*	*	*	*
=9||	=9||	=9||	=9||	=9||	=9||
!	!	!	!LO:TX:a:B:t=a tempo.	!	!
!	!	!	!LO:N:vis=8.	!	!
8AA\L 8A	8c#/L 8e 8cc#	] p	16.cc#\	Two-	.
!	!	!	!LO:N:vis=16	!	!
.	.	.	32cc#\	-je	.
8BB\ 8B	8d/ 8e 8g#	.	8b\	o-	.
8C#\J 8c#	8e/J 8a	.	8a/	-czy	.
=10	=10	=10	=10	=10	=10
!	!	!	!	!	!LO:DY:a
8BB\L 8B	8d/L 8f# 8dd	.	16.dd\	z bły-	<
.	.	.	32dd\	-ska-	.
8C#\ 8c#	8e/ 8f# 8a#X	.	8cc#\	-wi-	.
8D\J 8d	8f#/J 8b	.	8cc#\	-cy	[[
=11	=11	=11	=11	=11	=11
8qEE/	.	.	.	.	.
4E\	8d/L 8e 8b	.	16gg#\	to	.
.	.	.	16ff#\	praw-	.
.	8d/ 8e 8g#	.	8.ee\	-dzi-	.
8E#X\	8d/J 8g#	.	.	.	.
.	.	.	16dd\	-wy	.
=12	=12	=12	=12	=12	=12
(<16F#/LL	4.c#/ 4.a	>]	8cc#\	raj !	.
16FF#/	.	.	.	.	.
16C#/	.	.	8r	.	.
16F#/JJ)	.	.	.	.	.
16A\LL	.	.	8r	.	.
16c#\JJ	.	.	.	.	.
=13	=13	=13	=13	=13	=13
4D#X\ 4d#X	8r	.	16.cc#\	ta-	.
.	.	.	32b\	-kich	.
.	4B/ 4f# 4a	.	8.a#X/	o-	.
8BB/	.	.	.	.	.
.	.	.	16b\	-czu,	.
=14	=14	=14	=14	=14	=14
!	!	!	!	!	!LO:DY:a
4E\	8r	.	16.cc#\	i	<
.	.	.	32b\	dzie-	.
.	4B/ 4e 4g#	.	8.a#X/	-wi-	.
8BB/	.	.	.	.	.
.	.	.	16b\	-cy	[[
=15	=15	=15	=15	=15	=15
4F#\	8r	<	16cc#\	nie	.
.	.	.	16b\	ma	.
.	4B/ 4d#X 4a	[[	8cc#\	ża-	.
8BB/	.	.	8dd#X\	-den	.
=16	=16	=16	=16	=16	=16
[<16E\LL	16B/ 16e 16g#	.	4ee\	kraj !	.
16E\JJ_ [16G# [16B [16e	16r	.	.	.	.
4E\] 4G#] 4B] 4e]	16gg#\LL	.	.	.	.
.	16ff#\	.	.	.	.
.	16ddn\	.	8r	.	.
.	16b\JJ	.	.	.	.
!!LO:PB:g=original	!	!	!	!	!
=17	=17	=17	=17	=17	=17
8AA\L 8A	8c#/L 8e 8cc#	p	16.cc#\	I	.
.	.	.	32cc#\	A-	.
8BB\ 8B	8d/ 8e 8g#	.	8b\	-niel-	.
8C#\J 8c#	8e/J 8a	.	8a/	-skie	.
=18	=18	=18	=18	=18	=18
8BB\L 8B	8d/L 8f# 8dd	.	16.dd\	twe	.
.	.	.	32dd\	uś-	.
8C#\ 8c#	8e/ 8f# 8a#X	.	8cc#\	-mie-	.
8D\J 8d	8f#/J 8b	.	8b\	-chy,	.
=19	=19	=19	=19	=19	=19
.	.	.	8qa#X/	.	.
4C#\ 4c#	8r	.	16.ggn\	co	.
.	.	.	32gg\	cza-	.
.	4e/ 4f# 4a#X	.	8ff#\	-ru-	.
8FF#/ 8F#	.	.	8ee\	-ją	.
=20	=20	=20	=20	=20	=20
8r	4.d/ 4.f# 4.b	.	8dd\	świat,	.
*Xtuplet	*	*	*	*	*
!LO:TUP:a:problem:klamra łukowa	!	!	!	!	!
20AA#X\LL	.	.	8r	.	.
20BB\	.	.	.	.	.
20D\	.	.	.	.	.
.	.	.	8r	.	.
20F#\	.	.	.	.	.
20B\JJ	.	.	.	.	.
=21	=21	=21	=21	=21	=21
4.D\	8r	.	16cc#\	to	.
.	.	.	16b\	oz-	.
.	8d/L 8f# 8b	.	8.a/	-do-	.
.	8f#/J 8b 8dd	.	.	.	.
.	.	.	16f#/	-by	.
!!LO:LB:g=original	!	!	!	!	!
=22	=22	=22	=22	=22	=22
4.E\	8r	.	16f#/	na-	.
.	.	.	16e/	-széj	.
.	8c#/L 8e 8a	.	8g#/	strze-	.
.	8e/J 8a 8cc#	.	8a/	-chy	.
=23	=23	=23	=23	=23	=23
*	*^	*	*	*	*
!	!LO:TX:b:i:t=riten.	!	!	!LO:TX:a:i:t=ritenuto	!	!
4.EE/ 4.E	16d/LL 16g#	8ryy	.	16a#X/	na-	.
.	16e/JJ	.	.	16b\	-szych	.
.	8.g#/L	4d\	.	8.cc#\	skrom-	f
.	[<16e/Jk	.	.	16b\	-nych	.
*	*v	*v	*	*	*	*
=24	=24	=24	=24	=24	=24
8AA/	8c#/ 8e] 8a	.	8a/	chat.	.
8r	16r	.	8r	.	.
.	16a/LL	.	.	.	.
8r	16g#/	.	8r	.	.
.	16f#/JJ	.	.	.	.
=25	=25	=25	=25	=25	=25
!	!LO:TX:a:B:t=a tempo.	!	!	!	!
8EE/ 8E	16e/LL	<	4.r	.	.
.	16g#W</JJ 16b	.	.	.	.
8r	8gn/L 8a#X	.	.	.	.
8r	8g#X/J 8b	[[	.	.	.
=26	=26	=26	=26	=26	=26
16.AA\LL 16.A	16.an\LL 16.cc#	.	4.r	.	.
32A\JJk 32d 32f#	32a\JJk 32dd 32ff#	.	.	.	.
4A\ 4c# 4e	4a\ 4cc# 4ee	.	.	.	.
!!LO:LB:g=original	!	!	!	!	!
=27	=27	=27	=27	=27	=27
8FF#/L 8F#	16.a\LL 16.cc# 16.ff# 16.aa	f	4.r	.	.
.	32a\JJk 32cc# 32ff# 32aa	.	.	.	.
8DD/ 8D	8f#/L 8a 8b 8ff#	.	.	.	.
8EE/J 8E	8d/J 8g# 8b 8ee	.	.	.	.
=28	=28	=28	=28	=28	=28
16.AA\LL 16.A	16.c#/LL 16.a	>	4.r	.	.
32E\JJk	32cc#/JJk	.	.	.	.
4AA\ 4A	4c#/ 4a	]]	.	.	.
*kcancel	*kcancel	*	*kcancel	*	*
=29||	=29||	=29||	=29||	=29||	=29||
*k[f#c#]	*k[f#c#]	*	*k[f#c#]	*	*
*	*^	*	*	*	*
!LO:TX:t=P:problem: kasownik przy zmianie tonacji po krzyżykach	!LO:TX:t=P:problem: kasownik przy zmianie tonacji po krzyżykach	!	!LO:TX:t=P:problem: kasownik przy zmianie tonacji po krzyżykach	!	!	!
4.DD/ 4.D	16.r	16.ryy	.	16.a/	Cze-	.
.	32f#/ 32a	[32A\	.	32a/	-mu	.
.	8A/L] 8e#X 8g#X	4ryy	.	8g#X/	jed-	.
.	8f#/J 8a	.	.	8a/	-nak	.
=30	=30	=30	=30	=30	=30	=30
4.GG/ 4.G	16.r	16.ryy	.	16.b\	dziś	.
.	32gn/ 32b	[32B\	.	32b\	w twém	.
.	8f#/L 8a#X	4B\]	.	8a#X/	o-	.
.	8g/J 8b	.	.	8b\	-ku	.
*	*v	*v	*	*	*	*
=31	=31	=31	=31	=31	=31
16AA\LL	16.r	.	16cc#\	zszedł	.
16A\JJ	.	.	16gg\	po-	.
.	32g/ 32an 32cc#	.	.	.	.
8c#\L	8g/L 8a 8ee	.	8ff#\	-ran-	.
8A\J	8g/J 8a 8cc#	.	8ee\	-ku	.
!!LO:LB:g=original	!	!	!	!	!
=32	=32	=32	=32	=32	=32
16r	4f#/ 4a 4dd	.	8dd\	brzask?	.
16d\	.	.	.	.	.
8c#\L	.	.	8r	.	.
8d\J	8r	.	8r	.	.
=33	=33	=33	=33	=33	=33
16r	4.e/ 4.f# 4.a#X	.	16dd\	Mi-	.
16F#\	.	.	16cc#\	-nął	.
8A#X\L	.	.	8b#X\	pier-	.
8F#\J	.	.	8cc#\	-wszy	.
=34	=34	=34	=34	=34	=34
16r	4.d/ 4.f# 4.b	.	16cc#\	dzień	.
16F#\	.	.	16bn\	u-	.
8B\L	.	.	8a#X/	-ro-	.
8F#\J	.	.	8b\	-ku	.
=35	=35	=35	=35	=35	=35
16r	4c#/ 4e#X 4b	.	16b\	pier-	.
16G\	.	.	16dd\	-wszy	.
8B\L	.	.	8cc#\	o-	.
8E#X\J	8c#/ 8g 8b	.	8b\	-gnia	.
=36	=36	=36	=36	=36	=36
!	!LO:TX:b:i:t=riten.	!	!	!	!
16r	4c#/ 4f# 4a#X	.	8f#/	blask?	.
(16F#\LL	.	.	.	.	.
16E#X\	.	.	8r	.	.
16F#\JJ)	.	.	.	.	.
(16G\LL	8c#/ 8an	.	8r	.	.
16AA\JJ)	.	.	.	.	.
!!LO:PB:g=original	!	!	!	!	!
=37	=37	=37	=37	=37	=37
*	*^	*	*	*	*
!	!LO:TX:b:B:t=a tempo.	!	!	!	!	!
4.D\	16.r	16.ryy	.	16.a/	Cze-	.
.	32f#/ 32a	[32A\	.	32a/	-mu	.
.	8e#X/L 8g#X	4A\]	.	8g#X/	u-	.
.	8f#/J 8a	.	.	8a/	-śmiech	.
=38	=38	=38	=38	=38	=38	=38
4.GG/ 4.G	16.r	16.ryy	.	16.b\	twój	.
.	32gn/ 32b	[32B\	.	32b\	u-	.
.	8f#/L 8a#X	4B\]	.	8a#X/	-la-	.
.	8g/J 8b	.	.	8b\	-ta	.
*	*v	*v	*	*	*	*
=39	=39	=39	=39	=39	=39
4AA\ 4A	8r	.	16.cc#\	z nim	.
.	.	.	32cc#\	cza-	.
.	4g/ 4cc#	.	8dd\	-row-	.
8A#X\	.	.	8ee\	-ny	.
=40	=40	=40	=40	=40	=40
4.B\	16.r	.	8dd\	wdzięk,	.
.	32f#W</ 32dd	.	.	.	.
.	8cc#/L	.	8r	.	.
.	8f#/J 8dd	.	8r	.	.
=41	=41	=41	=41	=41	=41
8c#\	8f#/ 8a 8cc#	.	16.cc#\	z pier-	.
.	.	.	32cc#\	-si	.
4d#X\	4f#/ 4g#X 4b#X	.	8b#X\	wzdę-	.
.	.	.	8gg\	-tych	.
!!LO:LB:g=original	!	!	!	!	!
=42	=42	=42	=42	=42	=42
8e#X\	8g#X/ 8cc#	.	16.bn\	bu-	.
.	.	.	32b\	-rzą	.
4f#\	4a\ 4cc#	.	8a/	świa-	.
.	.	.	8ff#\	-ta,	.
=43	=43	=43	=43	=43	=43
8B\	8d/ 8f# 8g#X	.	16.g/	cze-	.
!	!	!	!LO:TX:a:i:t=ritenuto	!	!
.	.	.	32g/	-mu	.
.	.	.	8qb/	.	.
4B#X\	4d#X/ 4f# 4g#	.	8a/	pły-	.
.	.	.	8g/	-nie	.
=44	=44	=44	=44	=44	=44
16.c#\LL	4.e#X/ 4.g#X	.	4cc#\	jęk?	.
32c#\JJk	.	.	.	.	.
8C#/L	.	.	.	.	.
8CC#/J	.	.	8r	.	.
=45	=45	=45	=45	=45	=45
!	!	!	!LO:TX:a:i:t=un poco rubato	!	!
4.FF#/ 4.F#	16.r	.	16.cc#\	Pła-	.
!	!LO:TX:a:i:t=col canto	!	!	!	!
.	32A#X/ 32f#	.	32cc#\	-czesz	.
.	8B/L 8f#	.	8.dd\	Oj-	.
.	8A#/J 8f#	.	.	.	.
.	.	.	16cc#\	-ca,	.
=46	=46	=46	=46	=46	=46
4.BB/	16r	.	16b\	czy	.
.	16c#/ 16f#	.	16a#X/	też	.
.	8d/L 8f#	.	8b\	mat-	.
.	8B/J 8f#	.	8dd\	-ki,	.
=47	=47	=47	=47	=47	=47
4.AA\ 4.A	16.r	.	16.ee\	czy	.
.	32c#/ 32a	.	32ee\	mi-	.
.	8B/L 8a	.	8dd\	-nio-	.
.	8c#/J 8a	.	8ee\	-nych	.
=48	=48	=48	=48	=48	=48
4.D\	16d/LL 16f#	.	8ff#\	żniw,	.
.	16f#/JJ 16a	.	.	.	.
.	8e/L 8g	.	8r	.	.
.	8d/J 8f#	.	8r	.	.
=49	=49	=49	=49	=49	=49
4.CC#/ 4.C#	16r	.	16gg#X\	czy	.
.	16e#X/ 16g#X	.	16ee#X\	do	.
.	8f#/L 8a	.	8.cc#\	lu-	.
.	8g#/J 8b	.	.	.	.
.	.	.	16b\	-béj	.
=50	=50	=50	=50	=50	=50
4.FF#/ 4.F#	16r	.	16b\	wzdy-	.
.	16f#/ 16a	.	16a/	-chasz	.
.	8g#X/L 8b	.	8.g#X/	Chat-	.
.	8a/J 8cc#	.	.	.	.
.	.	.	16f#/	-ki	.
=51	=51	=51	=51	=51	=51
[4D\	16.r	.	16.f#/	wśród	.
.	32f#/ 32ccn	.	32f#/	kwie-	.
.	8ff#\L	.	8e#X/	-ci-	.
8D\] 8d	8f#\J 8cc	.	8f#/	-stych	.
!!LO:LB:g=original	!	!	!	!	!
=52	=52	=52	=52	=52	=52
!	!LO:TX:b:i:t=riten.	!	!LO:TX:a:i:t=riten.	!	!
.	.	.	(8qg#X/	.	.
*	*^	*	*	*	*
4C#\ 4c#	16e#X/LL 16g#X 16cc#X	4ryy	.	4.cc#\)	niw?	.
.	16cc#/	.	.	.	.	.
.	16b#X/	.	.	.	.	.
.	16cc#/JJ	.	.	.	.	.
8BB\ 8B	16ee/LL	8en\ 8g#	.	.	.	.
.	16dd/JJ	.	.	.	.	.
*	*v	*v	*	*	*	*
=53||	=53||	=53||	=53||	=53||	=53||
*k[f#c#g#]	*k[f#c#g#]	*	*k[f#c#g#]	*	*
!	!	!	!LO:TX:a:B:t=Tempo I.o	!	!
8AA\L 8A	8c#/L 8e 8cc#	p	16.cc#\	Nie	.
.	.	.	32cc#\	płacz	.
8BB\ 8B	8d/ 8e 8g#	.	8b\	dziew-	.
8C#\J 8c#	8e/J 8a	.	8a/	-cze	.
=54	=54	=54	=54	=54	=54
8BB\L 8B	8d/L 8f# 8dd	.	16.dd\	wio-	.
.	.	.	32dd\	-sna	.
8C#\ 8c#	8e/ 8f# 8a#X	.	8cc#\	wró-	.
8D\J 8d	8f#/J 8b	.	8b\	-ci,	.
=55	=55	=55	=55	=55	=55
8qEE/	.	.	.	.	.
4E\	8d/L 8e 8b	.	16gg#\	z wio-	.
.	.	.	16ff#\	-sną	.
.	8d/ 8e 8g#	.	8.ee\	pię-	.
8E#X\	8d/J 8g#	.	.	.	.
.	.	.	16dd\	-kny	.
!!LO:PB:g=original	!	!	!	!	!
=56	=56	=56	=56	=56	=56
16F#/LL	4.c#/ 4.a	>]	8cc#\	kwiat,	.
16FF#/	.	.	.	.	.
16C#/	.	.	8r	.	.
16F#/JJ	.	.	.	.	.
16A\LL	.	.	8r	.	.
16c#\JJ	.	.	.	.	.
=57	=57	=57	=57	=57	=57
4D#X\ 4d#X	8r	.	16.cc#\	a	.
.	.	.	32b\	sko-	.
.	4B/ 4f# 4a	.	8.a#X/	-wro-	.
8BB/	.	.	.	.	.
.	.	.	16b\	-nek	.
=58	=58	=58	=58	=58	=58
4E\	8r	.	16cc#\	znów	.
.	.	.	16b\	za-	.
.	4B/ 4e 4g#	.	8.a#X/	-nu-	.
8BB/	.	.	.	.	.
.	.	.	16b\	-ci	.
=59	=59	=59	=59	=59	=59
4F#\	8r	.	16cc#\	Jak	.
.	.	.	16b\	mi-	.
.	4B/ 4d#X 4a	<[	8.cc#\	-nio-	.
8BB/	.	.	.	.	.
.	.	.	16dd#X\	-nych	.
!!LO:LB:g=original	!	!	!	!	!
=60	=60	=60	=60	=60	=60
[16E\LL	16B/ 16e 16g#	.	4ee\	lat,	.
16E\JJ_ [16G# [16B [16e	16r	.	.	.	.
4E\] 4G#] 4B] 4e]	(16gg#\LL	.	.	.	.
.	16ff#\	.	.	.	.
.	16ddn\	.	8r	.	.
.	16b\JJ)	.	.	.	.
=61	=61	=61	=61	=61	=61
8AA\L 8A	8c#/L 8e 8cc#	.	16.cc#\	Nie	.
.	.	.	32cc#\	płacz	.
8BB\ 8B	8d/ 8e 8g#	.	8b\	dziew-	.
8C#\J 8c#	8e/J 8a	.	8a/	-cze	.
=62	=62	=62	=62	=62	=62
8BB\L 8B	8d/L 8f# 8dd	.	16.dd\	wio-	.
.	.	.	32dd\	-sna	.
8C#\ 8c#	8e/ 8f# 8a#X	.	8cc#\	wró-	.
8D\J 8d	8f#/J 8b	.	8b\	-ci	.
=63	=63	=63	=63	=63	=63
.	.	.	8qa#X/	.	.
4C#\ 4c#	8r	.	16.ggn\	z wio-	.
.	.	.	32gg\	-sną	.
.	4d/ 4e 4a#X	.	8ff#\	pię-	.
8F#\	.	.	8ee\	-kny	.
!!LO:LB:g=original	!	!	!	!	!
=64	=64	=64	=64	=64	=64
16r	4.d/ 4.f# 4.b	.	8dd\	kwiat,	.
16AA#X\LL	.	.	.	.	.
16BB\	.	.	8r	.	.
16D\	.	.	.	.	.
16F#\	.	.	8r	.	.
16A#X\JJ	.	.	.	.	.
=65	=65	=65	=65	=65	=65
.	.	.	8qf#/	.	.
8B\L	16r	.	16.dd\	A	.
.	16d/ 16f# 16b	.	.	.	.
.	.	.	32dd\	sko-	.
8c#\	8e/L 8f# 8a#X	.	8cc#\	-wro-	.
8d\J	8f#/J 8b	.	8b\	-nek	.
=66	=66	=66	=66	=66	=66
4.E\	16r	.	16.b\	znów	.
.	16c#/ 16e 16a	.	.	.	.
.	.	.	32a/	za-	.
.	8e/L 8a 8cc#	.	8g#/	-nu-	.
.	8c#/J 8e 8a	.	8a/	-ci,	.
=67	=67	=67	=67	=67	=67
4.EE/	16r	.	16a#X/	jak	.
.	16G#/ 16d 16e	.	16b\	mi-	.
.	8d/L 8e 8b	.	8cc#\	-nio-	.
.	8G#/J 8d 8e	.	8dd\	-nych	.
!!LO:LB:g=original	!	!	!	!	!
=68	=68	=68	=68	=68	=68
4.AA/	16r	.	8ee\	lat,	.
.	16c#/ 16e 16a	.	.	.	.
.	8e/L 8a 8cc#	.	8r	.	.
.	8c#/J 8e 8a	.	8r	.	.
=69	=69	=69	=69	=69	=69
4.DD/ 4.D	16r	.	16gg#\	A	.
.	16f#/ 16a 16b	f	16ff#\	sko-	.
.	8a\L 8b 8ff#	.	8.dd\	-wro-	.
.	8f#\J 8a 8b	.	.	.	.
.	.	.	16b\	-nek	.
=70	=70	=70	=70	=70	=70
4.EE/ 4.E	16r	.	16b\	znów	.
.	16e/ 16a 16cc#	.	16a/	za-	.
.	8a/L 8cc# 8ee	.	8g#/	-nu-	.
.	8e/J 8a 8cc#	.	8f#/	-ci,	.
=71	=71	=71	=71	=71	=71
!	!	!	!LO:TX:a:i:t=marcato e rallentando	!	!
4.EE/ 4.E	16r	.	16d#X/	jak	.
.	16d/ 16g#	.	16e/	mi-	.
.	8.e/L 8.g#	.	8.dd\	-nio-	.
.	16d/Jk	.	16g#/	-nych	.
=72	=72	=72	=72	=72	=72
!	!LO:TX:b:i:B:t=Fine.	!	!	!	!LO:DY:a
4.AA;\ 4.A	4.c#;/ 4.a	.	4.a/	lat.	f
==	==	==	==	==	==
*-	*-	*-	*-	*-	*-
!!!system-decoration: s1{(s2,s3)}
!!!RDF**kern: > = above
!!!RDF**kern: < = below
!!!ENC: Filip Voros
!!!END: 2022-08-03
!!!ENC: Jan Barakat
!!!END: 2022-09-08
